!!!OTL: Qingqing gaoshan baishi yan
!!!ARE: Asia, China,ˇYunnan, Nanhua
!! II, 81
!!!SCT: C1493
!!!YEM: Copyright 1995, estate of Helmut Schaffrath.
**kern
*ICvox
*Ivox
*M4/4
*k[]
*C:
{4e
=1
[2a
4.a]
16cc
16dd
=2
2.ee
4dd}
=3
{8ee
8ee
8gg
8aa
8aa
8dd
8dd
8gg
=4
8ee
8dd
8cc
8e
[4.a
16a]
{16cc
=5
8dd
16cc
16a
8dd
16cc
16a
8cc
8e
8g
8a
=6
4e
2.d}
=7
{[2cc
4.cc]
8a
=8
16cc
16a
8ee
8dd
8ee
8.ee
16dd
8cc
8a
=9
16cc
16dd
4.cc
16a
16g
4.e}
=10
{8a
8a
8g
8a
2d
=11
[2dd
4.dd]
16cc
16a}
=12
{8cc
16e
16g
8g
8a
8a
8d
8g
8a
=13
8e
8d
8d
8e
2A}
==
!!!AGN: Shange. NannÅ qing
!!!AMT: simple quadruple
!!!AIN: vox
!!!EED: Helmut Schaffrath
!!!EEV: 1.0
*-
